linkedinround.svg

<?xml version="1.0" encoding="utf-8"?>
<!-- Generator: Adobe Illustrator 22.0.1, SVG Export Plug-In . SVG Version: 6.00 Build 0)  -->
<svg version="1.1" id="Layer_1" xmlns="http://www.w3.org/2000/svg" xmlns:xlink="http://www.w3.org/1999/xlink" x="0px" y="0px"
	 viewBox="0 0 48 48" style="enable-background:new 0 0 48 48;" xml:space="preserve">
<style type="text/css">
	.st0{fill:#FFFFFF;}
</style>
<path class="st0" d="M24,0C10.7,0,0,10.7,0,24s10.7,24,24,24s24-10.7,24-24S37.3,0,24,0z M17.4,34.9h-4.6V20.1h4.6V34.9z M14.9,18.2
	c-1.7,0-2.8-1.1-2.8-2.6s1.1-2.6,2.8-2.6c1.7,0,2.8,1.1,2.8,2.6S16.7,18.2,14.9,18.2z M35.9,34.9h-5.3v-7.7c0-2-0.8-3.4-2.6-3.4
	c-1.4,0-2.1,0.9-2.5,1.8c-0.1,0.3-0.1,0.8-0.1,1.2v8h-5.2c0,0,0.1-13.6,0-14.8h5.2v2.3c0.3-1,2-2.5,4.6-2.5c3.3,0,5.9,2.1,5.9,6.7
	V34.9z"/>
</svg>

<?xml version="1.0" encoding="UTF-8"?>
<svg width="48px" height="48px" viewBox="0 0 48 48" version="1.1" xmlns="http://www.w3.org/2000/svg" xmlns:xlink="http://www.w3.org/1999/xlink">
    <!-- Generator: Sketch 54.1 (76490) - https://sketchapp.com -->
    <title>linkedinround</title>
    <desc>Created with Sketch.</desc>
    <g id="Page-1" stroke="none" stroke-width="1" fill="none" fill-rule="evenodd">
        <g id="linkedinround" fill="#222328" fill-rule="nonzero">
            <path d="M24,0 C10.7,0 0,10.7 0,24 C0,37.3 10.7,48 24,48 C37.3,48 48,37.3 48,24 C48,10.7 37.3,0 24,0 Z M17.4,34.9 L12.8,34.9 L12.8,20.1 L17.4,20.1 L17.4,34.9 Z M14.9,18.2 C13.2,18.2 12.1,17.1 12.1,15.6 C12.1,14.1 13.2,13 14.9,13 C16.6,13 17.7,14.1 17.7,15.6 C17.7,17.1 16.7,18.2 14.9,18.2 Z M35.9,34.9 L30.6,34.9 L30.6,27.2 C30.6,25.2 29.8,23.8 28,23.8 C26.6,23.8 25.9,24.7 25.5,25.6 C25.4,25.9 25.4,26.4 25.4,26.8 L25.4,34.8 L20.2,34.8 C20.2,34.8 20.3,21.2 20.2,20 L25.4,20 L25.4,22.3 C25.7,21.3 27.4,19.8 30,19.8 C33.3,19.8 35.9,21.9 35.9,26.5 L35.9,34.9 L35.9,34.9 Z" id="Shape"></path>
        </g>
    </g>
</svg>
